**kern	**kern
*staff2	*staff1
*clefG2	*clefG2
*k[]	*k[]
*M3/4	*M3/4
*C:	*C:
=-	=-
4r	(8gL
.	8ggJ)
=51	=51
(4g	(8bL
.	8ggJ
4e	8cc#L
.	8ggJ
4d	8ddL
.	8ggJ)
=52	=52
4c#)	(8eeL
.	8ggJ
4r	8ff#L
.	8ggJ
4r	8aaL
.	8ggJ)
*clefF4	*
=53	=53
2.C# 2.A	8r
.	(8bb-
.	8aaL
.	8ggJ
.	8ffL
.	8eeJ)
=54	=54
4D 4A	(8ggL
.	8ffJ
4r	8eeL
.	8ffJ
4r	8ggL
.	8ffJ)
*clefG2	*
=55	=55
(4f	(8aL
.	8ffJ
4d	8bL
.	8ffJ
4c	8ccL
.	8ffJ)
=56	=56
4B)	(8ddL
.	8ffJ
4r	8eeL
.	8ffJ
4B 4g	8ggL
.	8ffJ)
=57	=57
4c 4g	8r
.	8ee
4B 4g	8r
.	8dd
4A 4f#	8r
.	8cc
=58	=58
4g 4G	8r
.	(8b
4r 4r	8ccL
.	8cc#J
4r 4r	8ddL
.	8dd#J)
=	=
*-	*-
